lib/brands/logos/elastic.svg

<svg xmlns="http://www.w3.org/2000/svg" fill="none" aria-hidden="true" viewBox="0 0 106 128"><g id="Elastic"><g id="Group"><path id="Vector" fill="white" d="M93.7123 46.3895C93.7175 43.0863 92.7019 39.8621 90.8044 37.1583C88.9069 34.4544 86.2203 32.4029 83.1121 31.2845C83.3962 29.8437 83.539 28.3786 83.5386 26.91C83.5425 22.0455 82.0037 17.3051 79.1434 13.3704C76.2831 9.43567 72.2486 6.5094 67.6202 5.01235C62.9918 3.5153 58.0079 3.5246 53.3851 5.03892C48.7623 6.55323 44.7388 9.49454 41.8932 13.4399C39.7935 11.8148 37.2214 10.9182 34.5665 10.8859C31.9116 10.8535 29.3184 11.6871 27.1797 13.2604C25.0409 14.8337 23.4731 17.0612 22.7136 19.6053C21.9541 22.1495 22.0443 24.8719 22.9705 27.3602C19.8531 28.4943 17.158 30.5563 15.248 33.2686C13.338 35.9808 12.3048 39.2131 12.2874 42.5303C12.2773 45.8478 13.2957 49.0867 15.2025 51.8014C17.1094 54.516 19.8108 56.5729 22.935 57.6886C22.6586 59.1295 22.5178 60.5931 22.5144 62.0602C22.5114 66.9182 24.0511 71.6516 26.9115 75.578C29.772 79.5045 33.8055 82.4212 38.4304 83.9076C43.0554 85.394 48.0328 85.3734 52.6453 83.8486C57.2577 82.3239 61.2668 79.3738 64.0946 75.4237C66.187 77.0582 68.7557 77.965 71.4105 78.0064C74.0653 78.0479 76.6611 77.2217 78.8035 75.6533C80.9459 74.085 82.5179 71.8602 83.2805 69.317C84.0432 66.7738 83.955 64.0511 83.0292 61.5626C86.1468 60.4279 88.842 58.3654 90.752 55.6527C92.662 52.9399 93.6951 49.7072 93.7123 46.3895"/><path id="Vector_2" fill="#FFD00A" d="M44.3011 38.8281L62.1161 46.9522L80.094 31.1986C81.0017 26.6587 80.314 21.9447 78.1472 17.8534C75.9804 13.762 72.4674 10.5443 68.202 8.74422C63.9366 6.9441 59.1805 6.67197 54.7376 7.97384C50.2947 9.2757 46.4376 12.0717 43.8183 15.8892L40.8269 31.4029L44.3011 38.8281Z"/><path id="Vector_3" fill="#20B9AF" d="M25.8584 57.6944C25.5921 59.0156 25.4572 60.3599 25.4556 61.7076C25.4527 66.0168 26.832 70.2134 29.3909 73.6806C31.9497 77.1478 35.5532 79.7028 39.6718 80.9703C43.7904 82.2377 48.2069 82.1508 52.2724 80.7222C56.3379 79.2936 59.838 76.5987 62.2585 73.0334L65.2202 57.573L61.2603 50.0057L43.3742 41.852L25.8584 57.6944Z"/><path id="Vector_4" fill="#EE5096" d="M25.7517 26.8625L37.9601 29.7443L40.6257 15.8625C38.9646 14.6096 36.943 13.9273 34.8623 13.9174C32.7817 13.9075 30.7537 14.5707 29.0808 15.8078C27.4079 17.045 26.1799 18.7899 25.5799 20.7822C24.9799 22.7745 25.0402 24.9073 25.7517 26.8625"/><path id="Vector_5" fill="#12A5DF" d="M24.6853 29.771C22.0443 30.6413 19.7375 32.3078 18.0815 34.5417C16.4255 36.7755 15.5017 39.4673 15.4368 42.2472C15.3719 45.0272 16.1691 47.7591 17.719 50.0678C19.2689 52.3765 21.4955 54.1489 24.093 55.1415L41.2238 39.6574L38.0844 32.9371L24.6853 29.771Z"/><path id="Vector_6" fill="#90C640" d="M65.4009 73.0336C67.0588 74.2845 69.0768 74.9657 71.1537 74.9757C73.2306 74.9857 75.2551 74.3239 76.925 73.089C78.5949 71.8542 79.8208 70.1124 80.4197 68.1237C81.0186 66.1351 80.9585 64.006 80.2482 62.0543L68.0487 59.1992L65.4009 73.0336Z"/><path id="Vector_7" fill="#05799F" d="M67.8826 56.0002L81.3113 59.1427C83.9934 58.2392 86.3266 56.521 87.9853 54.2279C89.6439 51.9347 90.5454 49.1809 90.5638 46.3508C90.5612 43.6238 89.7292 40.9621 88.1782 38.7191C86.6271 36.4761 84.4305 34.758 81.88 33.7929L64.3137 49.1941L67.8826 56.0002Z"/><g id="Vector_8"><path fill="white" d="M16.9434 120.422L18.0866 120.303L18.1666 122.631C15.617 123.016 13.0442 123.227 10.466 123.262C7.62468 123.258 5.61167 122.436 4.42696 120.795C3.24226 119.154 2.6499 116.594 2.6499 113.115C2.6499 106.193 5.40039 102.731 10.9014 102.731C13.561 102.731 15.5484 103.476 16.8634 104.964C18.1784 106.453 18.8369 108.789 18.8389 111.972L18.679 114.223H5.64721C5.64721 116.407 6.04211 118.025 6.83191 119.077C7.62172 120.13 8.99696 120.657 10.9577 120.659C12.9223 120.659 14.9175 120.58 16.9434 120.422ZM15.8771 111.853C15.8771 109.431 15.4892 107.72 14.7132 106.721C13.9372 105.722 12.6735 105.221 10.9221 105.219C9.17072 105.219 7.85471 105.745 6.97408 106.798C6.09345 107.85 5.63931 109.535 5.61167 111.853H15.8771Z"/><path fill="white" d="M22.9676 123.111V97.1246H25.9294V123.111H22.9676Z"/><path fill="white" d="M44.5766 109.09V119.048C44.5766 120.034 47.0349 119.995 47.0349 119.995L46.8839 122.611C44.8106 122.611 43.081 122.782 42.0473 121.784C39.8099 122.777 37.3867 123.282 34.9391 123.265C33.1245 123.265 31.7423 122.753 30.7926 121.728C29.8429 120.703 29.369 119.228 29.3709 117.303C29.3709 115.384 29.8577 113.969 30.8311 113.059C31.8045 112.149 33.3308 111.59 35.41 111.383L41.609 110.79V109.093C41.609 107.748 41.3197 106.788 40.7412 106.211C40.4259 105.913 40.0533 105.682 39.646 105.532C39.2386 105.383 38.8051 105.317 38.3717 105.341H30.5912V102.731H38.1911C40.4302 102.731 42.0562 103.245 43.0691 104.271C44.082 105.298 44.5845 106.904 44.5766 109.09ZM32.4156 117.143C32.4156 119.566 33.4157 120.777 35.4159 120.777C37.2189 120.776 39.0085 120.468 40.7086 119.868L41.6149 119.551V113.035L35.7713 113.586C34.5866 113.693 33.7317 114.035 33.2064 114.614C32.6812 115.192 32.4176 116.035 32.4156 117.143Z"/><path fill="white" d="M56.1335 105.379C53.2625 105.379 51.828 106.379 51.83 108.379C51.83 109.301 52.1588 109.953 52.8163 110.334C53.4738 110.715 54.9744 111.11 57.3182 111.519C59.6599 111.926 61.3185 112.497 62.2939 113.234C63.2693 113.97 63.756 115.352 63.7541 117.38C63.7541 119.408 63.1025 120.896 61.7993 121.844C60.4961 122.791 58.5947 123.262 56.0949 123.256C54.463 123.256 49.0163 122.664 49.0163 122.664L49.1733 120.099C52.3039 120.395 54.5667 120.623 56.0949 120.623C57.6232 120.623 58.7872 120.38 59.5898 119.895C60.3925 119.409 60.7923 118.591 60.7923 117.445C60.7923 116.299 60.4517 115.523 59.7675 115.117C59.0834 114.712 57.5818 114.321 55.2657 113.95C52.9496 113.58 51.3028 113.038 50.3343 112.327C49.3658 111.617 48.8712 110.302 48.8712 108.379C48.8712 106.457 49.5494 105.035 50.9059 104.114C52.2624 103.193 53.9506 102.731 55.9794 102.731C57.5847 102.731 63.1558 103.14 63.1558 103.14V105.723C60.2207 105.589 57.8187 105.379 56.1335 105.379Z"/><path fill="white" d="M78.0357 105.693H71.7597V115.129C71.7597 117.394 71.9236 118.882 72.2514 119.593C72.5801 120.303 73.365 120.659 74.6001 120.659L78.1157 120.422L78.3141 122.868C76.9843 123.114 75.6378 123.26 74.2861 123.304C72.2326 123.304 70.811 122.803 70.0212 121.802C69.2314 120.801 68.8365 118.893 68.8365 116.077V105.693H66.0317V103.116H68.8335V97.0743H71.7568V103.116H78.0327L78.0357 105.693Z"/><path fill="white" d="M82.1526 100.605V97.1691H85.1143V100.605H82.1526ZM82.1526 123.114V103.116H85.1143V123.099L82.1526 123.114Z"/><path fill="white" d="M97.9417 102.731C99.4244 102.794 100.901 102.952 102.364 103.205L103.311 103.324L103.193 105.734C101.647 105.538 100.092 105.419 98.5341 105.379C96.295 105.379 94.7746 105.911 93.973 106.975C93.1713 108.04 92.7695 110.014 92.7675 112.899C92.7675 115.782 93.1427 117.789 93.893 118.92C94.6433 120.052 96.2032 120.617 98.5726 120.617L103.231 120.262L103.35 122.711C101.535 123.017 99.7014 123.199 97.8618 123.256C94.7815 123.256 92.656 122.466 91.4851 120.887C90.3142 119.307 89.7278 116.642 89.7258 112.89C89.7258 109.139 90.3576 106.507 91.6213 104.994C92.885 103.482 94.9918 102.727 97.9417 102.731Z"/></g></g></g></svg>

<svg xmlns="http://www.w3.org/2000/svg" fill="none" aria-hidden="true" viewBox="0 0 106 128"><path fill="#fff" d="M93.713 46.39a16.026 16.026 0 0 0-10.6-15.105 22.59 22.59 0 0 0 .426-4.375 22.996 22.996 0 0 0-41.646-13.47 12.214 12.214 0 0 0-18.922 13.92 16.233 16.233 0 0 0-10.683 15.17 16.044 16.044 0 0 0 10.647 15.16 23.494 23.494 0 0 0-.42 4.371 22.932 22.932 0 0 0 41.58 13.364 12.194 12.194 0 0 0 18.934-13.861A16.236 16.236 0 0 0 93.713 46.39"/><path fill="#FFD00A" d="m44.301 38.828 17.815 8.124L80.094 31.2a20.096 20.096 0 0 0-36.276-15.31l-2.991 15.514 3.474 7.425Z"/><path fill="#20B9AF" d="M25.858 57.694a20.442 20.442 0 0 0-.402 4.014 20.14 20.14 0 0 0 36.802 11.325l2.962-15.46-3.96-7.567-17.886-8.154-17.516 15.842Z"/><path fill="#EE5096" d="m25.752 26.863 12.208 2.881 2.666-13.881a9.647 9.647 0 0 0-14.874 11"/><path fill="#12A5DF" d="M24.686 29.77a13.467 13.467 0 0 0-.593 25.371l17.131-15.484-3.14-6.72-13.399-3.166Z"/><path fill="#90C640" d="M65.4 73.034a9.63 9.63 0 0 0 14.848-10.98l-12.2-2.855-2.647 13.835Z"/><path fill="#05799F" d="m67.883 56 13.428 3.143a13.592 13.592 0 0 0 9.253-12.792 13.44 13.44 0 0 0-8.684-12.558L64.314 49.194 67.883 56Z"/><path fill="#fff" d="m16.944 120.422 1.143-.119.08 2.328a56.73 56.73 0 0 1-7.7.631c-2.842-.004-4.855-.826-6.04-2.467-1.185-1.641-1.777-4.201-1.777-7.68 0-6.922 2.75-10.384 8.252-10.384 2.66 0 4.647.745 5.961 2.233 1.316 1.489 1.974 3.825 1.976 7.008l-.16 2.251H5.647c0 2.184.395 3.802 1.185 4.854.79 1.053 2.165 1.58 4.126 1.582 1.964 0 3.96-.079 5.986-.237Zm-1.067-8.569c0-2.422-.388-4.133-1.164-5.132-.776-.999-2.04-1.5-3.79-1.502-1.752 0-3.068.526-3.949 1.579-.88 1.052-1.335 2.737-1.362 5.055h10.265Zm7.091 11.258V97.125h2.962v25.986h-2.962Zm21.609-14.021v9.958c0 .986 2.458.947 2.458.947l-.151 2.616c-2.073 0-3.803.171-4.837-.827a17.227 17.227 0 0 1-7.108 1.481c-1.814 0-3.197-.512-4.146-1.537-.95-1.025-1.424-2.5-1.422-4.425 0-1.919.487-3.334 1.46-4.244.974-.91 2.5-1.469 4.58-1.676l6.198-.593v-1.697c0-1.345-.29-2.305-.868-2.882a3.208 3.208 0 0 0-2.37-.87h-7.78v-2.61h7.6c2.24 0 3.865.514 4.878 1.54 1.013 1.027 1.516 2.633 1.508 4.819Zm-12.161 8.053c0 2.423 1 3.634 3 3.634a15.93 15.93 0 0 0 5.293-.909l.906-.317v-6.516l-5.844.551c-1.184.107-2.04.449-2.564 1.028-.526.578-.79 1.421-.791 2.529Zm23.718-11.764c-2.871 0-4.306 1-4.304 3 0 .922.329 1.574.986 1.955.658.381 2.158.776 4.502 1.185 2.342.407 4 .978 4.976 1.715.976.736 1.462 2.118 1.46 4.146 0 2.028-.651 3.516-1.955 4.464-1.303.947-3.204 1.418-5.704 1.412-1.632 0-7.078-.592-7.078-.592l.156-2.565c3.131.296 5.394.524 6.922.524 1.528 0 2.692-.243 3.495-.728.803-.486 1.202-1.304 1.202-2.45 0-1.146-.34-1.922-1.024-2.328-.684-.405-2.186-.796-4.502-1.167-2.316-.37-3.963-.912-4.932-1.623-.968-.71-1.463-2.025-1.463-3.948 0-1.922.679-3.344 2.035-4.265 1.357-.921 3.045-1.383 5.074-1.383 1.605 0 7.176.409 7.176.409v2.583c-2.935-.134-5.337-.344-7.022-.344Zm21.902.314H71.76v9.436c0 2.265.164 3.753.491 4.464.33.71 1.114 1.066 2.35 1.066l3.515-.237.198 2.446c-1.33.246-2.676.392-4.028.436-2.053 0-3.475-.501-4.265-1.502-.79-1.001-1.184-2.909-1.184-5.725v-10.384h-2.805v-2.577h2.802v-6.042h2.923v6.042h6.276l.003 2.577Zm4.117-5.088v-3.436h2.961v3.436h-2.961Zm0 22.509v-19.998h2.961v19.983l-2.961.015Zm15.789-20.383c1.483.063 2.96.221 4.422.474l.948.119-.119 2.41a46.543 46.543 0 0 0-4.659-.355c-2.239 0-3.76.532-4.56 1.596-.803 1.065-1.204 3.039-1.206 5.924 0 2.883.375 4.89 1.125 6.021.75 1.132 2.31 1.697 4.68 1.697l4.659-.355.118 2.449a40.568 40.568 0 0 1-5.488.545c-3.08 0-5.206-.79-6.377-2.369-1.17-1.58-1.757-4.245-1.76-7.997 0-3.751.633-6.383 1.896-7.896 1.264-1.512 3.37-2.267 6.32-2.263Z"/></svg>
